images/pig-scheme/rulka.svg

<svg width="129" height="134" viewBox="0 0 129 134" fill="none" xmlns="http://www.w3.org/2000/svg">
<path d="M128.49 4.83997C127.7 9.51997 127.17 14.4599 126.61 19.5699C126.56 20.0199 126.51 20.4799 126.46 20.9399C126.46 20.9499 126.44 20.97 126.44 21.01C125.89 23 125.37 24.98 124.89 26.95C122.9 35.03 121.51 42.8699 120.77 50.4099C120.69 51.2199 120.62 52.0199 120.56 52.8199C120.56 52.8199 119.57 54.99 118.13 58.71C115.82 64.69 112.37 74.68 110.08 86.1C109.62 88.34 109.21 90.64 108.87 92.97C108.55 95.12 108.28 97.3 108.08 99.5C108.08 99.5 108.08 99.5 108.08 99.51C107.61 100.71 94.73 127.71 68.8 133.04C66.71 133.48 64.54 133.76 62.29 133.89C61.88 133.91 61.48 133.93 61.07 133.94C59.33 130.32 56.88 126.79 53.39 123.94C53.3 123.87 53.21 123.79 53.12 123.72C52.2 122.94 51.24 122.02 50.24 120.94C47.7 118.24 44.9 114.58 41.87 109.97C41.14 108.88 40.41 107.73 39.66 106.52C37.42 102.91 35.06 98.82 32.61 94.23C31.96 93.03 31.31 91.7899 30.66 90.5199C28.59 86.5299 26.46 82.2099 24.28 77.5599C23.69 76.2999 23.09 75.0099 22.49 73.6899C20.56 69.4699 18.58 64.99 16.58 60.26C16.02 58.96 15.47 57.6299 14.9 56.2799C13.08 51.8899 11.23 47.29 9.34998 42.49C8.88998 41.28 8.41 40.0599 7.94 38.8199C7.88 38.6799 7.82997 38.5399 7.77997 38.3999C5.80997 33.4899 4.59999 28.3399 3.67999 23.1599C3.39999 21.5299 3.13996 19.8999 2.89996 18.2799C2.04996 12.5699 1.38 6.88991 0.309998 1.52991C0.219998 1.01991 0.11 0.51 0 0C0.46 0.15 0.920015 0.299951 1.39001 0.449951C6.17001 1.95995 11.42 3.19994 16.99 4.18994C18.58 4.47994 20.2 4.74999 21.85 4.98999C27.44 5.83999 33.28 6.47993 39.25 6.92993C41.01 7.06993 42.77 7.18992 44.55 7.28992C50.75 7.66992 57.03 7.86994 63.24 7.93994C64.99 7.95994 66.74 7.96997 68.48 7.96997H68.87C75.66 7.95997 82.31 7.81996 88.6 7.57996C90.6 7.50996 92.57 7.41997 94.5 7.33997C102.21 6.96997 109.24 6.49991 115.15 6.02991C117.37 5.85991 119.44 5.6899 121.32 5.5199C124.14 5.2699 126.56 5.03997 128.49 4.83997Z" fill="#C21921"/>
<path fill-rule="evenodd" clip-rule="evenodd" d="M1.39001 0.449951L0.309998 1.52991C0.219998 1.01991 0.11 0.51 0 0C0.46 0.15 0.920015 0.299951 1.39001 0.449951Z" fill="#A51B1E"/>
<path fill-rule="evenodd" clip-rule="evenodd" d="M21.8499 4.98999L3.67993 23.1599C3.39993 21.5299 3.1399 19.8999 2.8999 18.2799L16.9899 4.18994C18.5799 4.47994 20.1999 4.74999 21.8499 4.98999Z" fill="#A51B1E"/>
<path fill-rule="evenodd" clip-rule="evenodd" d="M44.55 7.28992L9.35004 42.49C8.89004 41.28 8.41006 40.0599 7.94006 38.8199C7.88006 38.6799 7.83003 38.5399 7.78003 38.3999L39.2501 6.92993C41.0101 7.06993 42.7701 7.18992 44.55 7.28992Z" fill="#A51B1E"/>
<path fill-rule="evenodd" clip-rule="evenodd" d="M68.8699 7.96997L16.58 60.26C16.02 58.96 15.4699 57.6299 14.8999 56.2799L63.2399 7.93994C64.9899 7.95994 66.7399 7.96997 68.4799 7.96997H68.8699Z" fill="#A51B1E"/>
<path fill-rule="evenodd" clip-rule="evenodd" d="M94.5 7.33997L24.28 77.5599C23.69 76.2999 23.09 75.0099 22.49 73.6899L88.6 7.57996C90.6 7.50996 92.57 7.41997 94.5 7.33997Z" fill="#A51B1E"/>
<path fill-rule="evenodd" clip-rule="evenodd" d="M121.32 5.5199L32.6099 94.23C31.9599 93.03 31.3099 91.7899 30.6599 90.5199L115.15 6.02991C117.37 5.85991 119.44 5.6899 121.32 5.5199Z" fill="#A51B1E"/>
<path fill-rule="evenodd" clip-rule="evenodd" d="M126.61 19.5699C126.56 20.0199 126.51 20.4799 126.46 20.9399C126.46 20.9499 126.44 20.97 126.44 21.01C125.89 23 125.37 24.98 124.89 26.95L41.8699 109.97C41.1399 108.88 40.4099 107.73 39.6599 106.52L126.61 19.5699Z" fill="#A51B1E"/>
<path fill-rule="evenodd" clip-rule="evenodd" d="M120.77 50.4099C120.69 51.2199 120.62 52.0199 120.56 52.8199C120.56 52.8199 119.57 54.99 118.13 58.71L53.12 123.72C52.2 122.94 51.24 122.02 50.24 120.94L120.77 50.4099Z" fill="#A51B1E"/>
<path fill-rule="evenodd" clip-rule="evenodd" d="M110.08 86.1C109.62 88.34 109.21 90.64 108.87 92.97L68.8 133.04C66.71 133.48 64.54 133.76 62.29 133.89L110.08 86.1Z" fill="#A51B1E"/>
</svg>

<svg width="129" height="134" fill="none" xmlns="http://www.w3.org/2000/svg"><path d="M128.49 4.84c-.79 4.68-1.32 9.62-1.88 14.73l-.15 1.37c0 .01-.02.03-.02.07-.55 1.99-1.07 3.97-1.55 5.94-1.99 8.08-3.38 15.92-4.12 23.46-.08.81-.15 1.61-.21 2.41 0 0-.99 2.17-2.43 5.89-2.31 5.98-5.76 15.97-8.05 27.39-.46 2.24-.87 4.54-1.21 6.87-.32 2.15-.59 4.33-.79 6.53v.01c-.47 1.2-13.35 28.2-39.28 33.53-2.09.44-4.26.72-6.51.85-.41.02-.81.04-1.22.05-1.74-3.62-4.19-7.15-7.68-10-.09-.07-.18-.15-.27-.22-.92-.78-1.88-1.7-2.88-2.78-2.54-2.7-5.34-6.36-8.37-10.97-.73-1.09-1.46-2.24-2.21-3.45-2.24-3.61-4.6-7.7-7.05-12.29-.65-1.2-1.3-2.44-1.95-3.71-2.07-3.99-4.2-8.31-6.38-12.96a507.4 507.4 0 01-7.7-17.3c-.56-1.3-1.11-2.63-1.68-3.98a755.79 755.79 0 01-5.55-13.79c-.46-1.21-.94-2.43-1.41-3.67-.06-.14-.11-.28-.16-.42-1.97-4.91-3.18-10.06-4.1-15.24-.28-1.63-.54-3.26-.78-4.88C2.05 12.57 1.38 6.89.31 1.53.22 1.02.11.51 0 0c.46.15.92.3 1.39.45 4.78 1.51 10.03 2.75 15.6 3.74 1.59.29 3.21.56 4.86.8 5.59.85 11.43 1.49 17.4 1.94 1.76.14 3.52.26 5.3.36 6.2.38 12.48.58 18.69.65 1.75.02 3.5.03 5.24.03h.39c6.79-.01 13.44-.15 19.73-.39 2-.07 3.97-.16 5.9-.24 7.71-.37 14.74-.84 20.65-1.31 2.22-.17 4.29-.34 6.17-.51 2.82-.25 5.24-.48 7.17-.68z" fill="#C21921"/><path fill-rule="evenodd" clip-rule="evenodd" d="M1.39.45L.31 1.53C.22 1.02.11.51 0 0c.46.15.92.3 1.39.45zm20.46 4.54L3.68 23.16c-.28-1.63-.54-3.26-.78-4.88L16.99 4.19c1.59.29 3.21.56 4.86.8zm22.7 2.3l-35.2 35.2c-.46-1.21-.94-2.43-1.41-3.67-.06-.14-.11-.28-.16-.42L39.25 6.93c1.76.14 3.52.26 5.3.36zm24.32.68L16.58 60.26c-.56-1.3-1.11-2.63-1.68-3.98L63.24 7.94c1.75.02 3.5.03 5.24.03h.39zm25.63-.63L24.28 77.56c-.59-1.26-1.19-2.55-1.79-3.87L88.6 7.58c2-.07 3.97-.16 5.9-.24zm26.82-1.82L32.61 94.23c-.65-1.2-1.3-2.44-1.95-3.71l84.49-84.49c2.22-.17 4.29-.34 6.17-.51zm5.29 14.05l-.15 1.37c0 .01-.02.03-.02.07-.55 1.99-1.07 3.97-1.55 5.94l-83.02 83.02c-.73-1.09-1.46-2.24-2.21-3.45l86.95-86.95zm-5.84 30.84c-.08.81-.15 1.61-.21 2.41 0 0-.99 2.17-2.43 5.89l-65.01 65.01c-.92-.78-1.88-1.7-2.88-2.78l70.53-70.53zM110.08 86.1c-.46 2.24-.87 4.54-1.21 6.87L68.8 133.04c-2.09.44-4.26.72-6.51.85l47.79-47.79z" fill="#A51B1E"/></svg>
